images/teleg.svg

<svg width="22" height="18" viewBox="0 0 22 18" fill="none" xmlns="http://www.w3.org/2000/svg">
<path opacity="0.6" d="M20.014 0.118354L1.00217 7.44963C-0.295303 7.97077 -0.287797 8.69456 0.764124 9.01732L5.64521 10.54L16.9386 3.41459C17.4726 3.08968 17.9605 3.26447 17.5595 3.62047L8.40958 11.8782H8.40744L8.40958 11.8793L8.07288 16.9105C8.56614 16.9105 8.78381 16.6842 9.06046 16.4172L11.4313 14.1118L16.3628 17.7544C17.2721 18.2551 17.9251 17.9978 18.1514 16.9126L21.3886 1.65602C21.72 0.327452 20.8814 -0.274105 20.014 0.118354Z" fill="white"/>
</svg>

<svg width="22" height="18" fill="none" xmlns="http://www.w3.org/2000/svg"><path opacity=".6" d="M20.014.118 1.002 7.45c-1.297.52-1.29 1.245-.238 1.567l4.881 1.523L16.94 3.415c.534-.325 1.021-.15.62.205l-9.15 8.258h-.002l.003.001-.337 5.031c.493 0 .71-.226.987-.493l2.371-2.305 4.932 3.642c.91.501 1.562.244 1.788-.841L21.39 1.656C21.72.327 20.88-.274 20.014.118Z" fill="#fff"/></svg>
